public/svg/cloudflareworker.svg

<svg xmlns="http://www.w3.org/2000/svg" width="500" height="500" xmlns:v="https://vecta.io/nano"><defs><linearGradient id="A" x1="50%" x2="25.7%" y1="100%" y2="8.7%"><stop offset="0" stop-color="#eb6f07"/><stop offset="1" stop-color="#fab743"/></linearGradient><linearGradient id="B" x1="81%" x2="40.5%" y1="83.7%" y2="29.5%"><stop offset="0" stop-color="#d96504"/><stop offset="1" stop-color="#d96504" stop-opacity="0"/></linearGradient><linearGradient id="C" x1="42%" x2="84%" y1="8.7%" y2="79.9%"><stop offset="0" stop-color="#eb6f07"/><stop offset="1" stop-color="#eb720a" stop-opacity="0"/></linearGradient><linearGradient id="D" x1="50%" x2="25.7%" y1="100%" y2="8.7%"><stop offset="0" stop-color="#ee6f05"/><stop offset="1" stop-color="#fab743"/></linearGradient><linearGradient id="E" x1="-33.2%" x2="91.7%" y1="100%" y2="0%"><stop offset="0" stop-color="#d96504" stop-opacity=".8"/><stop offset=".498" stop-color="#d96504" stop-opacity=".2"/><stop offset="1" stop-color="#d96504" stop-opacity="0"/></linearGradient><linearGradient id="F" x1="50%" x2="25.7%" y1="100%" y2="8.7%"><stop offset="0" stop-color="#ffa95f"/><stop offset="1" stop-color="#ffebc8"/></linearGradient><linearGradient id="G" x1="8.1%" x2="96.5%" y1="1.1%" y2="48.8%"><stop offset="0" stop-color="#fff" stop-opacity=".5"/><stop offset="1" stop-color="#fff" stop-opacity=".1"/></linearGradient><linearGradient id="H" x1="-13.7%" y1="104.2%" y2="46.2%"><stop offset="0" stop-color="#fff" stop-opacity=".5"/><stop offset="1" stop-color="#fff" stop-opacity=".1"/></linearGradient></defs><path fill="url(#A)" d="M146.784 67.36l49 88.4-45 81a26 26 0 0 0 0 25.3l45 81.2-49 88.4a51.99 51.99 0 0 1-22-20.7l-78-135.5a52.2 52.2 0 0 1 0-52l78-135.5c5.138-8.888 12.793-16.056 22-20.6z"/><path fill="url(#B)" d="M150.784 236.86a26 26 0 0 0 0 25.2l45 81.2-49 88.4a51.99 51.99 0 0 1-22-20.7l-78-135.5c-6.2-10.7 28.5-23.5 104-38.5v-.1z" opacity=".7"/><path fill="url(#C)" d="M151.784 76.26l44 79.5-7.3 12.7-38.8-65.7c-11.2-18.3-28.3-8.8-49.7 28.2l3.2-5.5 21.6-37.5a51.99 51.99 0 0 1 21.8-20.6l5.1 8.9h.1z" opacity=".5"/><path fill="url(#D)" d="M370.784 87.96l78 135.5c9.3 16 9.3 36 0 52l-78 135.5c-9.283 16.078-26.435 25.988-45 26h-78l97-174.9c4.342-7.839 4.342-17.362 0-25.2l-97-174.9h78a52 52 0 0 1 45 26z"/><path fill="url(#E)" d="M321.784 436.36l-77 .7 93.2-175.8a27 27 0 0 0 0-25.4l-93.2-173.9h17.6l97.8 173.1c4.715 8.32 4.677 18.515-.1 26.8l-62.7 110c-19 33.4-10.8 54.9 24.4 64.5z"/><path fill="url(#F)" d="M169.784 436.96c-8 0-16-1.9-23-5.3l96.2-173.5c3-5.4 3-12 0-17.4l-96.2-173.4c7.15-3.541 15.02-5.389 23-5.4h78l97 174.9c4.342 7.838 4.342 17.361 0 25.2l-97 174.9h-78z"/><path fill="url(#G)" d="M337.984 240.76l-99.2-178.8h9l97 174.9c4.342 7.838 4.342 17.361 0 25.2l-97 174.9h-9l99.2-178.8c3-5.4 3-12 0-17.4z" opacity=".6"/><path fill="url(#H)" d="M242.984 240.76l-96.2-173.4c3-1.6 6.6-2.8 10-3.8l94 173.3c4.342 7.838 4.342 17.361 0 25.2l-95.5 172.9c-3.4-1-5.2-1.7-8.4-3.2l96-173.5c3-5.4 3-12 0-17.4l.1-.1z" opacity=".6"/></svg>

<svg xmlns="http://www.w3.org/2000/svg" viewBox="0 0 500 500" width="500" height="500">
    <defs>
        <linearGradient id="CloudflareWorkersLogoCombinationMarkHorizontal--gradient-a" x1="50%" x2="25.7%" y1="100%" y2="8.7%">
            <stop offset="0" stop-color="#eb6f07"/>
            <stop offset="1" stop-color="#fab743"/>
        </linearGradient>
        <linearGradient id="CloudflareWorkersLogoCombinationMarkHorizontal--gradient-b" x1="81%" x2="40.5%" y1="83.7%" y2="29.5%">
            <stop offset="0" stop-color="#d96504"/>
            <stop offset="1" stop-color="#d96504" stop-opacity="0"/>
        </linearGradient>
        <linearGradient id="CloudflareWorkersLogoCombinationMarkHorizontal--gradient-c" x1="42%" x2="84%" y1="8.7%" y2="79.9%">
            <stop offset="0" stop-color="#eb6f07"/>
            <stop offset="1" stop-color="#eb720a" stop-opacity="0"/>
        </linearGradient>
        <linearGradient id="CloudflareWorkersLogoCombinationMarkHorizontal--gradient-d" x1="50%" x2="25.7%" y1="100%" y2="8.7%">
            <stop offset="0" stop-color="#ee6f05"/>
            <stop offset="1" stop-color="#fab743"/>
        </linearGradient>
        <linearGradient id="CloudflareWorkersLogoCombinationMarkHorizontal--gradient-e" x1="-33.2%" x2="91.7%" y1="100%" y2="0%">
            <stop offset="0" stop-color="#d96504" stop-opacity=".8"/>
            <stop offset="0.498" stop-color="#d96504" stop-opacity=".2"/>
            <stop offset="1" stop-color="#d96504" stop-opacity="0"/>
        </linearGradient>
        <linearGradient id="CloudflareWorkersLogoCombinationMarkHorizontal--gradient-f" x1="50%" x2="25.7%" y1="100%" y2="8.7%">
            <stop offset="0" stop-color="#ffa95f"/>
            <stop offset="1" stop-color="#ffebc8"/>
        </linearGradient>
        <linearGradient id="CloudflareWorkersLogoCombinationMarkHorizontal--gradient-g" x1="8.1%" x2="96.5%" y1="1.1%" y2="48.8%">
            <stop offset="0" stop-color="#fff" stop-opacity=".5"/>
            <stop offset="1" stop-color="#fff" stop-opacity=".1"/>
        </linearGradient>
        <linearGradient id="CloudflareWorkersLogoCombinationMarkHorizontal--gradient-h" x1="-13.7%" y1="104.2%" y2="46.2%">
            <stop offset="0" stop-color="#fff" stop-opacity=".5"/>
            <stop offset="1" stop-color="#fff" stop-opacity=".1"/>
        </linearGradient>
    </defs>
    <path fill="url(#CloudflareWorkersLogoCombinationMarkHorizontal--gradient-a)" d="M 146.784 67.36 L 195.784 155.76 L 150.784 236.76 C 146.404 244.624 146.404 254.195 150.784 262.06 L 195.784 343.26 L 146.784 431.66 C 137.563 427.089 129.907 419.885 124.784 410.96 L 46.784 275.46 C 37.536 259.36 37.536 239.56 46.784 223.46 L 124.784 87.96 C 129.922 79.072 137.577 71.904 146.784 67.36 Z"/>
    <path fill="url(#CloudflareWorkersLogoCombinationMarkHorizontal--gradient-b)" d="M 150.784 236.86 C 146.441 244.698 146.441 254.221 150.784 262.06 L 195.784 343.26 L 146.784 431.66 C 137.563 427.089 129.907 419.885 124.784 410.96 L 46.784 275.46 C 40.584 264.76 75.284 251.96 150.784 236.96 L 150.784 236.86 Z" opacity=".7"/>
    <path fill="url(#CloudflareWorkersLogoCombinationMarkHorizontal--gradient-c)" d="M 151.784 76.26 L 195.784 155.76 L 188.484 168.46 L 149.684 102.76 C 138.484 84.46 121.384 93.96 99.984 130.96 L 103.184 125.46 L 124.784 87.96 C 129.869 79.101 137.451 71.936 146.584 67.36 L 151.684 76.26 L 151.784 76.26 Z" opacity=".5"/>
    <path fill="url(#CloudflareWorkersLogoCombinationMarkHorizontal--gradient-d)" d="M 370.784 87.96 L 448.784 223.46 C 458.084 239.46 458.084 259.46 448.784 275.46 L 370.784 410.96 C 361.501 427.038 344.349 436.948 325.784 436.96 L 247.784 436.96 L 344.784 262.06 C 349.126 254.221 349.126 244.698 344.784 236.86 L 247.784 61.96 L 325.784 61.96 C 344.349 61.972 361.501 71.881 370.784 87.96 Z"/>
    <path fill="url(#CloudflareWorkersLogoCombinationMarkHorizontal--gradient-e)" d="M 321.784 436.36 L 244.784 437.06 L 337.984 261.26 C 342.215 253.322 342.215 243.798 337.984 235.86 L 244.784 61.96 L 262.384 61.96 L 360.184 235.06 C 364.899 243.38 364.861 253.575 360.084 261.86 C 339.035 298.442 318.135 335.109 297.384 371.86 C 278.384 405.26 286.584 426.76 321.784 436.36 Z"/>
    <path fill="url(#CloudflareWorkersLogoCombinationMarkHorizontal--gradient-f)" d="M 169.784 436.96 C 161.784 436.96 153.784 435.06 146.784 431.66 L 242.984 258.16 C 245.984 252.76 245.984 246.16 242.984 240.76 L 146.784 67.36 C 153.934 63.819 161.804 61.971 169.784 61.96 L 247.784 61.96 L 344.784 236.86 C 349.126 244.698 349.126 254.221 344.784 262.06 L 247.784 436.96 L 169.784 436.96 Z"/>
    <path fill="url(#CloudflareWorkersLogoCombinationMarkHorizontal--gradient-g)" d="M 337.984 240.76 L 238.784 61.96 L 247.784 61.96 L 344.784 236.86 C 349.126 244.698 349.126 254.221 344.784 262.06 L 247.784 436.96 L 238.784 436.96 L 337.984 258.16 C 340.984 252.76 340.984 246.16 337.984 240.76 Z" opacity=".6"/>
    <path fill="url(#CloudflareWorkersLogoCombinationMarkHorizontal--gradient-h)" d="M 242.984 240.76 L 146.784 67.36 C 149.784 65.76 153.384 64.56 156.784 63.56 C 177.984 101.66 209.284 159.46 250.784 236.86 C 255.126 244.698 255.126 254.221 250.784 262.06 L 155.284 434.96 C 151.884 433.96 150.084 433.26 146.884 431.76 L 242.884 258.26 C 245.884 252.86 245.884 246.26 242.884 240.86 L 242.984 240.76 Z" opacity=".6"/>
</svg>
